X: 9429
T: Danny Ab's
R: slide
M: 12/8
K: Dmajor
|:E|F2F GFG A3 A2B|AFD AFD E3 E2G|
F2F GFG A3 A2d|cBA GFE D3 D2:|
|:c|d2A F2d c2B G3|ABA G2E B2A F2c|
d2A F2d c2B G2F|EFG ABc d3 d2:|

